storage/app/icons/phosphoricons/thin/treasure-chest-thin.svg

<svg xmlns="http://www.w3.org/2000/svg" fill="currentColor" viewBox="0 0 256 256"><path d="M184 44H72a52.06 52.06 0 0 0-52 52v96a12 12 0 0 0 12 12h192a12 12 0 0 0 12-12V96a52.06 52.06 0 0 0-52-52m44 52v12h-40V52.19A44.06 44.06 0 0 1 228 96m-88 44h-24v-40h24Zm-28 8h32a4 4 0 0 0 4-4v-28h32v80H76v-80h32v28a4 4 0 0 0 4 4m36-40V96a4 4 0 0 0-4-4h-32a4 4 0 0 0-4 4v12H76V52h104v56ZM68 52.19V108H28V96a44.06 44.06 0 0 1 40-43.81M28 192v-76h40v80H32a4 4 0 0 1-4-4m196 4h-36v-80h40v76a4 4 0 0 1-4 4"/></svg>

<svg xmlns="http://www.w3.org/2000/svg" viewBox="0 0 256 256" fill="currentColor"><path d="M184,44H72A52.06,52.06,0,0,0,20,96v96a12,12,0,0,0,12,12H224a12,12,0,0,0,12-12V96A52.06,52.06,0,0,0,184,44Zm44,52v12H188V52.19A44.06,44.06,0,0,1,228,96Zm-88,44H116V100h24Zm-28,8h32a4,4,0,0,0,4-4V116h32v80H76V116h32v28A4,4,0,0,0,112,148Zm36-40V96a4,4,0,0,0-4-4H112a4,4,0,0,0-4,4v12H76V52H180v56ZM68,52.19V108H28V96A44.06,44.06,0,0,1,68,52.19ZM28,192V116H68v80H32A4,4,0,0,1,28,192Zm196,4H188V116h40v76A4,4,0,0,1,224,196Z"/></svg>
